X: 36241
T: Sea Monster, The
R: jig
M: 6/8
K: Cmajor
|:ged ~B3|B2g ^fed|~_B3 _Bcd|~_B3 ~_B2f|
g2g ged|B2g ^fed|~c3 ~c3|~c3 =BAG:|
|:GAB BAG|Bcd dcB|F2B cBA|E2B cBA|
GAB BAG|Bcd dcB|~c3 ~c3|~c3 BAG:|

